!!!COM: Buxtehude, Dietrich
!!!CDT: ~1637///-1707/05/09/
!!!ODT: ~1694///
!!!OTL: Sonata in A Minor, Op. 1, No. 3
!!!OPS: Op. 1
!!!ONM: No. 3
!!!SCA: BuxWV 254
!!!OMD: 1. Adagio
!!!URL: http://www.lysator.liu.se/~tuben/scores
!!!ONB: Johan Tufvessons, ed.
**kern	**kern	**kern
*staff3	*staff2	*staff1
*Icemba	*Iviola	*Ivioln
*clefF4	*clefC3	*clefG2
*k[]	*k[]	*k[]
*met(C)	*met(C)	*met(C)
*M4/4	*M4/4	*M4/4
*MM72	*MM72	*MM72
=1-	=1-	=1-
[1AA	4r	4r
.	2e\	2cc\
.	8d\L	8b/L
.	8c\J	8a/J
=2	=2	=2
1AA_	4c\	4a/
.	8c\L	8a/L
.	8d\J	8b/J
.	8B\L	8g#/L
.	16c\L	16a/L
.	16d\JJ	16b/JJ
.	8.c/L	8.a/L
.	16B/Jk	16g#/Jk
=3	=3	=3
1AA]	4c\	4a/
.	4c\	4a/
.	2c\	2a/
=4	=4	=4
2GG#/	4r	1r
.	4e\	.
2AA/	4c\	.
.	4A/	.
=5	=5	=5
4r	4.f\	4r
4D\	.	4a/
.	8f\	.
2A\	8e\L	4cc\
.	8d\	.
.	8c\	[4ee\
.	8B\J	.
=6	=6	=6
2F\	8A/L	4ee\]
.	8c/	.
.	8B/	4.dd\
.	8A/J	.
[2E\	8G#/L	.
.	8A/	8cc\L
.	8B/	8b\
.	8c/J	8a\J
=7	=7	=7
2E\]	8B/L	8.a/L
.	8E/	.
.	.	16b/Jk
.	8e/	4g#/
.	8E/J	.
4r	4F/	4a/
8C/L	[4A/	8r
8D/J	.	8cc\
=8	=8	=8
2E\	4A/]	8b\L
.	.	8b\
.	4.G/	8ee\
.	.	8ee\J
[2AA/	.	8cc#\L
.	8F/L	8dd\
.	8E/	8ee\
.	8D/J	8ff\J
=9	=9	=9
2AA/]	8.D/L	8ee\L
.	.	8a\
.	16E/Jk	.
.	4C#/	8aa\
.	.	8gg\J
4r	4D/	8ff\L
.	.	8ee\J
4BB/	8r	[4dd\
.	8F/	.
=10	=10	=10
4.C/	8E/L	8dd\L]
.	8E/	8ee\
.	8A/	8cc\
8D\	8A/J	8cc\J
[2E\	8G#/L	8b\L
.	8A/	8cc\
.	8B/	8b\
.	8c/J	8a\J
=11	=11	=11
4E\]	8B/L	8a/L
.	8E/	8g/J
4EE/	8e/	4.g/
.	8d/J	.
4AA/	8c/L	.
.	8B/J	8g/L
4C/	[4A/	8f#/
.	.	8e/J
=12	=12	=12
[1BB	8A/L]	4d#/
.	8B/	.
.	8G/	8e/L
.	8g/J	8b/J
.	8f#\L	8a/L
.	8g\	8b/
.	8f#\	8a/
.	8e\J	8g/J
=13	=13	=13
2.BB/]	8e\L	8g/L
.	8f#\	8a/
.	8d#\	8f#/
.	8c#\J	8e/J
.	4.d#\	4.f#/
4AA/	.	.
.	8d#\	8f#/
=14	=14	=14
2GG#/	2e\	4e/
.	.	4ee\
2AA/	2r	4cc\
.	.	4a/
=15	=15	=15
4r	4r	4.ff\
4A\	4A/	.
.	.	8ff\
4c\	4c\	8ee\L
.	.	8dd\
4e\	[4e\	8cc\
.	.	8b\J
=16	=16	=16
4e\	4e\]	8a/L
.	.	8cc/
[4d\	4.d\	8b/
.	.	8a/J
8d\L]	.	8g#/L
8c\J	8c/L	8a/
8B\L	8B/	8b/
[8A\J	8A/J	8cc/J
=17	=17	=17
4A\]	8.A/L	8b/L
.	.	8e/J
.	16B/Jk	.
4G#\	4G#/	4ee\
4.A\	4A/	4ff\
.	8r	[4aa\
8c\	8c\	.
=18	=18	=18
4B\	8B\L	4aa\]
.	8B\	.
4e\	8e\	4.gg\
.	8e\J	.
4.c#\	8c#\L	.
.	8d\	8ff\L
.	8e\	8ee\
8d\	8f\J	8dd\J
=19	=19	=19
4A\	8e\L	8.dd\L
.	8A\	.
.	.	16ee\Jk
4AA/	8a\	4cc#\
.	8g\J	.
4r	8f\L	4dd\
.	8e\J	.
4D\	[4d\	8r
.	.	8ff\
=20	=20	=20
4BB/	8d\L]	4g#/
.	8e\	.
4AA/	8c\	2a/
.	8c\J	.
[2E\	4c\	.
.	8B/L	8g#/L
.	8A/J	8f#/J
=21	=21	=21
2E\]	8B/L	8g#/L
.	8d/	8b/
.	8.c#/	8.a/
.	16B/Jk	16g#/Jk
2AA;/	2A;/	2a;/
==	==	==
*-	*-	*-
!!!ENC: Craig Stuart Sapp
!!!END: 2004/12/15/
